X:4
T:Jag \"ar Fattig (Hambo)
T:"I am poor"
%O:Sweden
R:Hambo
Z:Bob Wyttenbach 5/30/03 from Andrea Hoag for NFF 2003
M:3/4
L:1/8
%Q:1/4=160
K:E %Transposed from D
P:A
g>f e2c'2|(b>e)g4|g>eB2a2|(3gag f2-f(>g|a>g) (f>=f) ^f>g|
(a>g) (f>=f) ^f>g|(a>g) (f>e) d>d|(3(cdc)B4|g>f e2c'2|(b>e)g4|
g>eB2a2|(3gag f4|e>ac'2c'2|e>gb2b2|B>B c>B d>B|e2e4:|
P:B
g>f e2d2|c2G3G|c>B c>d e>f|fgg4|ug>f e2d2|
(3cdc G3G|c>B c>d e>f|fgg4|e>ac'2c'2|e>gb2b2|
B>B c>B d>B|e>e (3gegb2|e>ac'2c'2|e>gb2b2|B>B c>B d>B|e2e4:|
